; generated by PrusaSlicer 2.3.0+linux-x64 on 2021-10-12 at 16:47:20 UTC


;
;

;
;
; 

; external perimeters extrusion width = 0.45mm
; perimeters extrusion width = 0.45mm
; infill extrusion width = 0.45mm
; solid infill extrusion width = 0.45mm
; top infill extrusion width = 0.45mm
; support material extrusion width = 0.38mm
; first layer extrusion width = 0.42mm

M201 X600 Y600 Z120 E5000 ; sets maximum accelerations, mm/sec^2
M203 X600 Y600 Z10 E70 ; sets maximum feedrates, mm/sec
M204 P500 R1000 T500 ; sets acceleration (P, T) and retract acceleration (R), mm/sec^2
M205 X8.00 Y8.00 Z0.40 E5.00 ; sets the jerk limits, mm/sec
M205 S0 T0 ; sets the minimum extruding and travel feed rate, mm/sec
M107
;TYPE:Custom
G90 ; use absolute coordinates
M83 ; extruder relative mode
M104 S210 ; set extruder temp
M140 S60 ; set bed temp
M190 S60 ; wait for bed temp
M109 S210 ; wait for extruder temp
G28 ; home all
G1 Z2 F240
G1 X2 Y10 F3000
G1 Z0.28 F240
G92 E0
G1 Y190 E15 F1500 ; intro line
G1 X2.3 F5000
G92 E0
G1 Y10 E15 F1200 ; intro line
G92 E0
G21 ; set units to millimeters
G90 ; use absolute coordinates
M83 ; use relative distances for extrusion
; Filament gcode
;LAYER_CHANGE
;Z:0.2
;HEIGHT:0.2
;BEFORE_LAYER_CHANGE
G92 E0
;0.2


G1 E-2.00000 F3600.000
G1 Z0.200 F9000.000
;AFTER_LAYER_CHANGE
;0.2
G1 X102.938 Y104.487
G1 E2.00000 F2400.000
;TYPE:Skirt
;WIDTH:0.42
G1 F1200.000
G1 X103.430 Y103.682 E0.02955
G1 X103.837 Y103.303 E0.01745
G1 X104.309 Y103.016 E0.01733
G1 X104.833 Y102.827 E0.01745
G1 X105.384 Y102.748 E0.01745
G1 X125.505 Y102.745 E0.63087
G1 X126.506 Y102.935 E0.03195
G1 X127.366 Y103.474 E0.03183
G1 X127.973 Y104.287 E0.03183
G1 X128.245 Y105.269 E0.03195
G1 X128.253 Y125.587 E0.63703
G1 X128.062 Y126.513 E0.02968
G1 X127.570 Y127.318 E0.02955
G1 X127.146 Y127.709 E0.01809
G1 X126.650 Y128.003 E0.01809
G1 X126.103 Y128.188 E0.01809
G1 X125.530 Y128.255 E0.01809
G1 X105.413 Y128.253 E0.63074
G1 X104.487 Y128.062 E0.02968
G1 X103.682 Y127.570 E0.02955
G1 X103.291 Y127.146 E0.01809
G1 X102.997 Y126.650 E0.01809
G1 X102.812 Y126.103 E0.01809
G1 X102.745 Y125.530 E0.01809
G1 X102.747 Y105.413 E0.63074
G1 X102.926 Y104.545 E0.02779
G1 X104.492 Y103.347 F9000.000
G1 F1200.000
G1 X105.415 Y103.124 E0.02977
G1 X125.504 Y103.122 E0.62990
G1 X126.371 Y103.288 E0.02767
G1 X127.121 Y103.760 E0.02778
G1 X127.643 Y104.471 E0.02767
G1 X127.871 Y105.323 E0.02767
G1 X127.877 Y125.565 E0.63467
G1 X127.710 Y126.378 E0.02602
G1 X127.273 Y127.084 E0.02602
G1 X126.907 Y127.416 E0.01550
G1 X126.481 Y127.666 E0.01550
G1 X126.012 Y127.822 E0.01550
G1 X125.521 Y127.877 E0.01550
G1 X105.431 Y127.877 E0.62990
G1 X104.622 Y127.710 E0.02590
G1 X103.916 Y127.273 E0.02602
G1 X103.584 Y126.907 E0.01550
G1 X103.334 Y126.481 E0.01550
G1 X103.178 Y126.012 E0.01550
G1 X103.123 Y125.521 E0.01550
G1 X103.123 Y105.431 E0.62990
G1 X103.290 Y104.622 E0.02590
G1 X103.727 Y103.916 E0.02602
G1 X104.443 Y103.383 E0.02801
G1 E-1.40000 F3600.000
;WIPE_START
G1 F7200.000
G1 X105.415 Y103.124 E-0.47742
G1 X105.610 Y103.124 E-0.09258
;WIPE_END
G1 E-0.03000 F3600.000
G1 X106.187 Y106.187 F9000.000
G1 E2.00000 F2400.000
;TYPE:Perimeter
G1 F1200.000
G1 X124.813 Y106.187 E0.58403
G1 X124.813 Y124.813 E0.58403
G1 X106.187 Y124.813 E0.58403
G1 X106.187 Y106.247 E0.58215
G1 X105.809 Y105.809 F9000.000
;TYPE:External perimeter
G1 F1200.000
G1 X125.191 Y105.809 E0.60768
G1 X125.191 Y125.191 E0.60768
G1 X105.809 Y125.191 E0.60768
G1 X105.809 Y105.869 E0.60580
G1 X106.196 Y105.913 F9000.000
G1 E-1.40000 F3600.000
;WIPE_START
G1 F7200.000
G1 X107.009 Y105.866 E-0.57000
;WIPE_END
G1 E-0.03000 F3600.000
G1 X124.700 Y107.064 F9000.000
G1 E2.00000 F2400.000
;TYPE:Solid infill
;WIDTH:0.420829
G1 F1200.000
G1 X124.106 Y106.469 E0.02641
G1 X123.572 Y106.469 E0.01679
G1 X124.531 Y107.428 E0.04262
G1 X124.531 Y107.963 E0.01679
G1 X123.037 Y106.469 E0.06637
G1 X122.503 Y106.469 E0.01679
G1 X124.531 Y108.497 E0.09012
G1 X124.531 Y109.032 E0.01679
G1 X121.968 Y106.469 E0.11387
G1 X121.434 Y106.469 E0.01679
G1 X124.531 Y109.566 E0.13762
G1 X124.531 Y110.101 E0.01679
G1 X120.899 Y106.469 E0.16137
G1 X120.365 Y106.469 E0.01679
G1 X124.531 Y110.635 E0.18512
G1 X124.531 Y111.170 E0.01679
G1 X119.830 Y106.469 E0.20887
G1 X119.296 Y106.469 E0.01679
G1 X124.531 Y111.704 E0.23262
G1 X124.531 Y112.238 E0.01679
G1 X118.762 Y106.469 E0.25637
G1 X118.227 Y106.469 E0.01679
G1 X124.531 Y112.773 E0.28012
G1 X124.531 Y113.307 E0.01679
G1 X117.693 Y106.469 E0.30387
G1 X117.158 Y106.469 E0.01679
G1 X124.531 Y113.842 E0.32762
G1 X124.531 Y114.376 E0.01679
G1 X116.624 Y106.469 E0.35138
G1 X116.089 Y106.469 E0.01679
G1 X124.531 Y114.911 E0.37513
G1 X124.531 Y115.445 E0.01679
G1 X115.555 Y106.469 E0.39888
G1 X115.020 Y106.469 E0.01679
G1 X124.531 Y115.980 E0.42263
G1 X124.531 Y116.514 E0.01679
G1 X114.486 Y106.469 E0.44638
G1 X113.952 Y106.469 E0.01679
G1 X124.531 Y117.048 E0.47013
G1 X124.531 Y117.583 E0.01679
G1 X113.417 Y106.469 E0.49388
G1 X112.883 Y106.469 E0.01679
G1 X124.531 Y118.117 E0.51763
G1 X124.531 Y118.652 E0.01679
G1 X112.348 Y106.469 E0.54138
G1 X111.814 Y106.469 E0.01679
G1 X124.531 Y119.186 E0.56513
G1 X124.531 Y119.721 E0.01679
G1 X111.279 Y106.469 E0.58888
G1 X110.745 Y106.469 E0.01679
G1 X124.531 Y120.255 E0.61263
G1 X124.531 Y120.790 E0.01679
G1 X110.210 Y106.469 E0.63638
G1 X109.676 Y106.469 E0.01679
G1 X124.531 Y121.324 E0.66013
G1 X124.531 Y121.858 E0.01679
G1 X109.142 Y106.469 E0.68388
G1 X108.607 Y106.469 E0.01679
G1 X124.531 Y122.393 E0.70763
G1 X124.531 Y122.927 E0.01679
G1 X108.073 Y106.469 E0.73138
G1 X107.538 Y106.469 E0.01679
G1 X124.531 Y123.462 E0.75513
G1 X124.531 Y123.996 E0.01679
G1 X107.004 Y106.469 E0.77888
G1 X106.469 Y106.469 E0.01679
G1 X124.531 Y124.531 E0.80263
G1 X123.996 Y124.531 E0.01679
G1 X106.469 Y107.004 E0.77887
G1 X106.469 Y107.538 E0.01679
G1 X123.462 Y124.531 E0.75512
G1 X122.927 Y124.531 E0.01679
G1 X106.469 Y108.073 E0.73137
G1 X106.469 Y108.607 E0.01679
G1 X122.393 Y124.531 E0.70762
G1 X121.858 Y124.531 E0.01679
G1 X106.469 Y109.142 E0.68387
G1 X106.469 Y109.676 E0.01679
G1 X121.324 Y124.531 E0.66012
G1 X120.789 Y124.531 E0.01679
G1 X106.469 Y110.211 E0.63637
G1 X106.469 Y110.745 E0.01679
G1 X120.255 Y124.531 E0.61262
G1 X119.721 Y124.531 E0.01679
G1 X106.469 Y111.279 E0.58887
G1 X106.469 Y111.814 E0.01679
G1 X119.186 Y124.531 E0.56512
G1 X118.652 Y124.531 E0.01679
G1 X106.469 Y112.348 E0.54137
G1 X106.469 Y112.883 E0.01679
G1 X118.117 Y124.531 E0.51762
G1 X117.583 Y124.531 E0.01679
G1 X106.469 Y113.417 E0.49387
G1 X106.469 Y113.952 E0.01679
G1 X117.048 Y124.531 E0.47012
G1 X116.514 Y124.531 E0.01679
G1 X106.469 Y114.486 E0.44637
G1 X106.469 Y115.021 E0.01679
G1 X115.979 Y124.531 E0.42262
G1 X115.445 Y124.531 E0.01679
G1 X106.469 Y115.555 E0.39887
G1 X106.469 Y116.089 E0.01679
G1 X114.911 Y124.531 E0.37512
G1 X114.376 Y124.531 E0.01679
G1 X106.469 Y116.624 E0.35137
G1 X106.469 Y117.158 E0.01679
G1 X113.842 Y124.531 E0.32762
G1 X113.307 Y124.531 E0.01679
G1 X106.469 Y117.693 E0.30387
G1 X106.469 Y118.227 E0.01679
G1 X112.773 Y124.531 E0.28012
G1 X112.238 Y124.531 E0.01679
G1 X106.469 Y118.762 E0.25637
G1 X106.469 Y119.296 E0.01679
G1 X111.704 Y124.531 E0.23262
G1 X111.169 Y124.531 E0.01679
G1 X106.469 Y119.831 E0.20887
G1 X106.469 Y120.365 E0.01679
G1 X110.635 Y124.531 E0.18512
G1 X110.101 Y124.531 E0.01679
G1 X106.469 Y120.899 E0.16137
G1 X106.469 Y121.434 E0.01679
G1 X109.566 Y124.531 E0.13762
G1 X109.032 Y124.531 E0.01679
G1 X106.469 Y121.968 E0.11387
G1 X106.469 Y122.503 E0.01679
G1 X108.497 Y124.531 E0.09012
G1 X107.963 Y124.531 E0.01679
G1 X106.469 Y123.037 E0.06637
G1 X106.469 Y123.572 E0.01679
G1 X107.428 Y124.531 E0.04262
G1 X106.894 Y124.531 E0.01679
G1 X106.300 Y123.936 E0.02641
M106 S255
;LAYER_CHANGE
;Z:0.48
;HEIGHT:0.28
;BEFORE_LAYER_CHANGE
G92 E0
;0.48


G1 E-1.40000 F3600.000
;WIPE_START
G1 F7200.000
G1 X106.894 Y124.531 E-0.39916
G1 X107.254 Y124.531 E-0.17084
;WIPE_END
G1 E-0.03000 F3600.000
G1 Z0.480 F9000.000
;AFTER_LAYER_CHANGE
;0.48
M104 S205 ; set temperature
G1 X104.487 Y128.062
G1 E2.00000 F2400.000
;TYPE:Skirt
;WIDTH:0.42
G1 X103.682 Y127.570 E0.03949
G1 X103.291 Y127.146 E0.02418
G1 X102.997 Y126.650 E0.02418
G1 X102.812 Y126.103 E0.02418
G1 X102.745 Y125.530 E0.02418
G1 X102.747 Y105.413 E0.84283
G1 X102.938 Y104.487 E0.03966
G1 X103.430 Y103.682 E0.03949
G1 X103.837 Y103.303 E0.02332
G1 X104.309 Y103.016 E0.02315
G1 X104.833 Y102.827 E0.02332
G1 X105.384 Y102.748 E0.02332
G1 X125.505 Y102.745 E0.84300
G1 X126.506 Y102.935 E0.04270
G1 X127.366 Y103.474 E0.04253
G1 X127.973 Y104.287 E0.04253
G1 X128.245 Y105.269 E0.04270
G1 X128.253 Y125.587 E0.85124
G1 X128.062 Y126.513 E0.03966
G1 X127.570 Y127.318 E0.03949
G1 X127.146 Y127.709 E0.02418
G1 X126.650 Y128.003 E0.02418
G1 X126.103 Y128.188 E0.02418
G1 X125.530 Y128.255 E0.02418
G1 X105.413 Y128.253 E0.84283
G1 X104.545 Y128.074 E0.03714
G1 X104.622 Y127.710 F9000.000
G1 F2400.000
G1 X103.916 Y127.273 E0.03477
G1 X103.584 Y126.907 E0.02071
G1 X103.334 Y126.481 E0.02071
G1 X103.178 Y126.012 E0.02071
G1 X103.123 Y125.521 E0.02071
G1 X103.123 Y105.431 E0.84171
G1 X103.290 Y104.622 E0.03461
G1 X103.727 Y103.916 E0.03477
G1 X104.492 Y103.347 E0.03994
G1 X105.415 Y103.124 E0.03979
G1 X125.504 Y103.122 E0.84171
G1 X126.371 Y103.288 E0.03697
G1 X127.121 Y103.760 E0.03713
G1 X127.643 Y104.471 E0.03697
G1 X127.871 Y105.323 E0.03697
G1 X127.877 Y125.565 E0.84808
G1 X127.710 Y126.378 E0.03477
G1 X127.273 Y127.084 E0.03477
G1 X126.907 Y127.416 E0.02071
G1 X126.481 Y127.666 E0.02071
G1 X126.012 Y127.822 E0.02071
G1 X125.521 Y127.877 E0.02071
G1 X105.431 Y127.877 E0.84171
G1 X104.681 Y127.722 E0.03210
G1 E-1.40000 F3600.000
;WIPE_START
G1 F7200.000
G1 X103.916 Y127.273 E-0.42109
G1 X103.705 Y127.041 E-0.14891
;WIPE_END
G1 E-0.03000 F3600.000
G1 X106.114 Y124.886 F9000.000
G1 E2.00000 F2400.000
;TYPE:Perimeter
;WIDTH:0.45
G1 X106.114 Y106.114 E0.85202
G1 X124.886 Y106.114 E0.85202
G1 X124.886 Y124.886 E0.85202
G1 X106.174 Y124.886 E0.84930
G1 X105.724 Y125.275 F9000.000
;TYPE:External perimeter
G1 F1500.000
G1 X105.724 Y105.724 E0.88742
G1 X125.275 Y105.724 E0.88742
G1 X125.275 Y125.275 E0.88742
G1 X105.784 Y125.275 E0.88469
G1 X105.828 Y124.889 F9000.000
G1 E-1.40000 F3600.000
;WIPE_START
G1 F7200.000
G1 X105.781 Y124.076 E-0.57000
;WIPE_END
G1 E-0.03000 F3600.000
G1 X107.024 Y106.231 F9000.000
G1 E2.00000 F2400.000
;TYPE:Solid infill
;WIDTH:0.452189
G1 X106.407 Y106.849 E0.03985
G1 X106.407 Y107.403 E0.02531
G1 X107.403 Y106.407 E0.06432
G1 X107.958 Y106.407 E0.02531
G1 X106.407 Y107.958 E0.10011
G1 X106.407 Y108.512 E0.02531
G1 X108.512 Y106.407 E0.13591
G1 X109.067 Y106.407 E0.02531
G1 X106.407 Y109.067 E0.17170
G1 X106.407 Y109.621 E0.02531
G1 X109.621 Y106.407 E0.20749
G1 X110.176 Y106.407 E0.02531
G1 X106.407 Y110.176 E0.24329
G1 X106.407 Y110.730 E0.02531
G1 X110.730 Y106.407 E0.27908
G1 X111.285 Y106.407 E0.02531
G1 X106.407 Y111.285 E0.31488
G1 X106.407 Y111.839 E0.02531
G1 X111.839 Y106.407 E0.35067
G1 X112.394 Y106.407 E0.02531
G1 X106.407 Y112.394 E0.38647
G1 X106.407 Y112.948 E0.02531
G1 X112.948 Y106.407 E0.42226
G1 X113.503 Y106.407 E0.02531
G1 X106.407 Y113.503 E0.45806
G1 X106.407 Y114.057 E0.02531
G1 X114.057 Y106.407 E0.49385
G1 X114.612 Y106.407 E0.02531
G1 X106.407 Y114.612 E0.52964
G1 X106.407 Y115.166 E0.02531
G1 X115.166 Y106.407 E0.56544
G1 X115.721 Y106.407 E0.02531
G1 X106.407 Y115.721 E0.60123
G1 X106.407 Y116.275 E0.02531
G1 X116.275 Y106.407 E0.63703
G1 X116.830 Y106.407 E0.02531
G1 X106.407 Y116.830 E0.67282
G1 X106.407 Y117.384 E0.02531
G1 X117.384 Y106.407 E0.70862
G1 X117.939 Y106.407 E0.02531
G1 X106.407 Y117.939 E0.74441
G1 X106.407 Y118.493 E0.02531
G1 X118.493 Y106.407 E0.78021
G1 X119.048 Y106.407 E0.02531
G1 X106.407 Y119.048 E0.81600
G1 X106.407 Y119.602 E0.02531
G1 X119.603 Y106.407 E0.85179
G1 X120.157 Y106.407 E0.02531
G1 X106.407 Y120.157 E0.88759
G1 X106.407 Y120.712 E0.02531
G1 X120.712 Y106.407 E0.92338
G1 X121.266 Y106.407 E0.02531
G1 X106.407 Y121.266 E0.95918
G1 X106.407 Y121.821 E0.02531
G1 X121.821 Y106.407 E0.99497
G1 X122.375 Y106.407 E0.02531
G1 X106.407 Y122.375 E1.03077
G1 X106.407 Y122.930 E0.02531
G1 X122.930 Y106.407 E1.06656
G1 X123.484 Y106.407 E0.02531
G1 X106.407 Y123.484 E1.10236
G1 X106.407 Y124.039 E0.02531
G1 X124.039 Y106.407 E1.13815
G1 X124.593 Y106.407 E0.02531
G1 X106.407 Y124.593 E1.17394
G1 X106.961 Y124.593 E0.02531
G1 X124.593 Y106.961 E1.13816
G1 X124.593 Y107.516 E0.02531
G1 X107.516 Y124.593 E1.10236
G1 X108.070 Y124.593 E0.02531
G1 X124.593 Y108.070 E1.06657
G1 X124.593 Y108.625 E0.02531
G1 X108.625 Y124.593 E1.03077
G1 X109.179 Y124.593 E0.02531
G1 X124.593 Y109.179 E0.99498
G1 X124.593 Y109.734 E0.02531
G1 X109.734 Y124.593 E0.95918
G1 X110.288 Y124.593 E0.02531
G1 X124.593 Y110.288 E0.92339
G1 X124.593 Y110.843 E0.02531
G1 X110.843 Y124.593 E0.88759
G1 X111.397 Y124.593 E0.02531
G1 X124.593 Y111.397 E0.85180
G1 X124.593 Y111.952 E0.02531
G1 X111.952 Y124.593 E0.81601
G1 X112.506 Y124.593 E0.02531
G1 X124.593 Y112.506 E0.78021
G1 X124.593 Y113.061 E0.02531
G1 X113.061 Y124.593 E0.74442
G1 X113.615 Y124.593 E0.02531
G1 X124.593 Y113.615 E0.70862
G1 X124.593 Y114.170 E0.02531
G1 X114.170 Y124.593 E0.67283
G1 X114.725 Y124.593 E0.02531
G1 X124.593 Y114.725 E0.63703
G1 X124.593 Y115.279 E0.02531
G1 X115.279 Y124.593 E0.60124
G1 X115.834 Y124.593 E0.02531
G1 X124.593 Y115.834 E0.56544
G1 X124.593 Y116.388 E0.02531
G1 X116.388 Y124.593 E0.52965
G1 X116.943 Y124.593 E0.02531
G1 X124.593 Y116.943 E0.49385
G1 X124.593 Y117.497 E0.02531
G1 X117.497 Y124.593 E0.45806
G1 X118.052 Y124.593 E0.02531
G1 X124.593 Y118.052 E0.42227
G1 X124.593 Y118.606 E0.02531
G1 X118.606 Y124.593 E0.38647
G1 X119.161 Y124.593 E0.02531
G1 X124.593 Y119.161 E0.35068
G1 X124.593 Y119.715 E0.02531
G1 X119.715 Y124.593 E0.31488
G1 X120.270 Y124.593 E0.02531
G1 X124.593 Y120.270 E0.27909
G1 X124.593 Y120.824 E0.02531
G1 X120.824 Y124.593 E0.24329
G1 X121.379 Y124.593 E0.02531
G1 X124.593 Y121.379 E0.20750
G1 X124.593 Y121.933 E0.02531
G1 X121.933 Y124.593 E0.17170
G1 X122.488 Y124.593 E0.02531
G1 X124.593 Y122.488 E0.13591
G1 X124.593 Y123.042 E0.02531
G1 X123.042 Y124.593 E0.10012
G1 X123.597 Y124.593 E0.02531
G1 X124.593 Y123.597 E0.06432
G1 X124.593 Y124.151 E0.02531
G1 X123.976 Y124.769 E0.03985
;LAYER_CHANGE
;Z:0.76
;HEIGHT:0.28
;BEFORE_LAYER_CHANGE
G92 E0
;0.76


G1 E-1.40000 F3600.000
;WIPE_START
G1 F7200.000
G1 X124.593 Y124.151 E-0.41473
G1 X124.593 Y123.824 E-0.15527
;WIPE_END
G1 E-0.03000 F3600.000
G1 Z0.760 F9000.000
;AFTER_LAYER_CHANGE
;0.76
G1 X124.886 Y124.886
G1 E2.00000 F2400.000
;TYPE:Perimeter
;WIDTH:0.45
G1 X106.114 Y124.886 E0.85202
G1 X106.114 Y106.114 E0.85202
G1 X124.886 Y106.114 E0.85202
G1 X124.886 Y124.826 E0.84930
G1 X125.275 Y125.275 F9000.000
;TYPE:External perimeter
G1 F1500.000
G1 X105.724 Y125.275 E0.88742
G1 X105.724 Y105.724 E0.88742
G1 X125.275 Y105.724 E0.88742
G1 X125.275 Y125.215 E0.88469
G1 X124.889 Y125.172 F9000.000
G1 E-1.40000 F3600.000
;WIPE_START
G1 F7200.000
G1 X124.076 Y125.219 E-0.57000
;WIPE_END
G1 E-0.03000 F3600.000
G1 X106.231 Y123.976 F9000.000
G1 E2.00000 F2400.000
;TYPE:Solid infill
;WIDTH:0.452189
G1 X106.849 Y124.593 E0.03985
G1 X107.403 Y124.593 E0.02531
G1 X106.407 Y123.597 E0.06432
G1 X106.407 Y123.042 E0.02531
G1 X107.958 Y124.593 E0.10011
G1 X108.512 Y124.593 E0.02531
G1 X106.407 Y122.488 E0.13591
G1 X106.407 Y121.933 E0.02531
G1 X109.067 Y124.593 E0.17170
G1 X109.621 Y124.593 E0.02531
G1 X106.407 Y121.379 E0.20749
G1 X106.407 Y120.824 E0.02531
G1 X110.176 Y124.593 E0.24329
G1 X110.730 Y124.593 E0.02531
G1 X106.407 Y120.270 E0.27908
G1 X106.407 Y119.715 E0.02531
G1 X111.285 Y124.593 E0.31488
G1 X111.839 Y124.593 E0.02531
G1 X106.407 Y119.161 E0.35067
G1 X106.407 Y118.606 E0.02531
G1 X112.394 Y124.593 E0.38647
G1 X112.948 Y124.593 E0.02531
G1 X106.407 Y118.052 E0.42226
G1 X106.407 Y117.497 E0.02531
G1 X113.503 Y124.593 E0.45806
G1 X114.057 Y124.593 E0.02531
G1 X106.407 Y116.943 E0.49385
G1 X106.407 Y116.388 E0.02531
G1 X114.612 Y124.593 E0.52964
